X:168
T: Das hungernde Kind
N: Q1115D
O: Mitteleuropa, Deutschland
N: Melodievergleich zu Q0115C, anderes Lied.
R: Kinder - Lied
M: 2/4
L: 1/8
K: G
 | DGGG | FAA2 |
BBcA | AGG2 |
dBBG | GEE2 |
cBAG | FED2 |
DGGG | FAA2 |
BBcA | AGG2

@@@ Tune index: 1461
